X: 77
T:San Pelaio
M:2/4
L:1/16
Q:200
C:Trad
R:Pasodoble
K:C
c4 G2E2 | c4 G2E2 | c3"F."g c4- | c2G2F2E2 | c4 G2E2 | c4 G2B2 | A4 {C}A
4- | A8 | c4 B2A2 | G4 F2E2 |
B4 {C}B4- | B2G2F2E2 | A4 {C}A4- | A2F2D2F2 |1 E8- | E8 :|2 |: E8- | E"F
."c E2F2G2 | A2BA G4- | G2E2F2G2 | A2BA G4- |
G2E2F2G2 | A6 B2 | A2G2F2E2 | G2AG F4- | F2D2E2F2| G2AG F4- | F2D2E2F2 |
 G2AG F4- | F2D2E2F2 | B6 c2 | B2A2G2F2 :| E8- | E8

